X: 16
T: Paddy Whack
Z: Rupert Kirby
S: https://thesession.org/tunes/317#setting53224
R: jig
M: 6/8
L: 1/8
K: Dmaj
|:DFA dcd | BAG FED | DFA Bcd | cAA A2c |
dfd ecA | Bcd AFD | DEF GEA | FDD D3 :|
|:D3F3 | GAB AFD | ABc dcd | ecA Aag |
fed cBA | BAG FED | EFG ABc | dDD D3 :|
B2d dcd | B2f fef | gag fed | efe dcB |
^A2f A2f | Bcd def | gag fed | cdc B3 |
DFA dcd | BAG FED | DFA Bcd | cAA A2c |
dfd ecA | Bcd AFD | DEF GEA | FDD D3 ||

%-------------------- TUNE SEPARATOR --------------------%

